src/assets/images/offers/milesmore.svg

<svg fill="none" height="56" viewBox="0 0 189 56" width="189" xmlns="http://www.w3.org/2000/svg" xmlns:xlink="http://www.w3.org/1999/xlink"><clipPath id="a"><path d="m0 0h189v56h-189z"/></clipPath><g clip-path="url(#a)"><path d="m176.9 29c.3-2 1.3-2.9 3.5-2.9 2.5 0 3.2 1.2 3.4 2.9zm12.1 2.1c0-5.4-2.5-9-8.6-9-6.6 0-8.6 4.4-8.6 9 0 5.4 2.5 9 8.9 9 5 0 7.7-2.4 8-5.7h-5c-.3 1.1-1.1 1.6-3 1.6-2.5 0-3.6-1-3.8-3.5h12.1c0-.5 0-1 0-1.4zm-17.6-4.1v-4.9c-.2 0-.7-.1-.9-.1-2.6 0-4 1.1-4.6 2.5v-2h-4.9v17h5.1v-9.5c0-2.2 1.3-3.1 3.2-3.1.6 0 1.3 0 2.1.1zm-25.2 4.1c0-2.8 1.2-4.5 4-4.5s4 1.6 4 4.5c0 2.8-1.2 4.5-4 4.5s-4-1.7-4-4.5zm-5.1 0c0 5.4 2.7 9 9.1 9 6.5 0 9.1-3.6 9.1-9s-2.7-9-9.1-9c-6.5 0-9.1 3.6-9.1 9zm-22.9-5.4 6.1 13.8h3.6l6.1-13.8v13.8h5.5v-23.5h-6.5l-6.8 15.4-6.9-15.4h-6.5v23.6h5.5v-13.9zm-26.6 10.2c-1.8 0-3-1-3-2.5 0-1.2.4-2.2 2.5-3.3l4.4 4.7c-1.2.7-2.4 1.1-3.9 1.1zm1.5-16.3c1.5 0 2.7.9 2.7 2.2 0 1.2-.8 2.1-2.6 2.9l-.8.4-.5-.5c-.8-.8-1.5-1.8-1.5-2.8-.1-1.3.8-2.2 2.7-2.2zm13.4 20-4.5-4.6c1.5-1.9 2.6-4.1 3-6.5h-5c-.3 1-.7 2.1-1.3 3l-3.2-3.3.1-.1c3-1.3 5-3.3 5-6.1 0-3.8-2.3-6.5-7.3-6.5-5.3 0-7.6 3-7.6 6.4 0 1.9 1 3.5 2.5 5.1-3 1.5-4.7 3.6-4.7 6.4 0 4.2 2.6 6.7 8 6.7 2.6 0 5-.8 7-2.1l1.4 1.5h6.6zm-37.2.5c5.5 0 7.9-2.1 7.9-5.7 0-3.5-2.2-4.9-6.5-5.5l-1.8-.2c-1.4-.2-1.9-.6-1.9-1.3s.6-1.3 2.3-1.3 2.3.6 2.4 1.6h4.9c-.2-3.7-2.7-5.5-7.4-5.5-5.3 0-7.4 2.4-7.4 5.6 0 3.4 2.2 4.8 5.9 5.3l1.8.2c1.8.2 2.4.6 2.4 1.5s-.8 1.4-2.8 1.4-2.8-.6-3-1.9h-5c.3 3.5 2.4 5.8 8.2 5.8zm-21-11.1c.3-2 1.3-2.9 3.5-2.9 2.5 0 3.2 1.2 3.4 2.9zm12.1 2.1c0-5.4-2.5-9-8.6-9-6.6 0-8.6 4.4-8.6 9 0 5.4 2.5 9 8.9 9 5 0 7.7-2.4 8-5.7h-5c-.4 1.1-1.1 1.6-3.1 1.6-2.5 0-3.6-1-3.8-3.5h12.1c.1-.5.1-1 .1-1.4zm-22 8.5h3.1v-23.6h-5.1v21.5c0 1.4.7 2.1 2 2.1zm-4.4-17h-5.1v17h5.1zm0-6.6h-5.1v4.3h5.1zm-28.5 9.7 6.1 13.8h3.6l6.1-13.8v13.8h5.5v-23.5h-6.5l-6.8 15.4-7-15.4h-6.5v23.6h5.5z" fill="#fff"/></g></svg>

<svg width="189" height="56" viewBox="0 0 189 56" fill="none" xmlns="http://www.w3.org/2000/svg">
<g clip-path="url(#clip0_768_792)">
<path d="M176.9 29C177.2 27 178.2 26.1 180.4 26.1C182.9 26.1 183.6 27.3 183.8 29H176.9ZM189 31.1C189 25.7 186.5 22.1 180.4 22.1C173.8 22.1 171.8 26.5 171.8 31.1C171.8 36.5 174.3 40.1 180.7 40.1C185.7 40.1 188.4 37.7 188.7 34.4H183.7C183.4 35.5 182.6 36 180.7 36C178.2 36 177.1 35 176.9 32.5H189C189 32 189 31.5 189 31.1ZM171.4 27V22.1C171.2 22.1 170.7 22 170.5 22C167.9 22 166.5 23.1 165.9 24.5V22.5H161V39.5H166.1V30C166.1 27.8 167.4 26.9 169.3 26.9C169.9 26.9 170.6 26.9 171.4 27ZM146.2 31.1C146.2 28.3 147.4 26.6 150.2 26.6C153 26.6 154.2 28.2 154.2 31.1C154.2 33.9 153 35.6 150.2 35.6C147.4 35.6 146.2 33.9 146.2 31.1ZM141.1 31.1C141.1 36.5 143.8 40.1 150.2 40.1C156.7 40.1 159.3 36.5 159.3 31.1C159.3 25.7 156.6 22.1 150.2 22.1C143.7 22.1 141.1 25.7 141.1 31.1ZM118.2 25.7L124.3 39.5H127.9L134 25.7V39.5H139.5V16H133L126.2 31.4L119.3 16H112.8V39.6H118.3V25.7H118.2ZM91.6 35.9C89.8 35.9 88.6 34.9 88.6 33.4C88.6 32.2 89 31.2 91.1 30.1L95.5 34.8C94.3 35.5 93.1 35.9 91.6 35.9ZM93.1 19.6C94.6 19.6 95.8 20.5 95.8 21.8C95.8 23 95 23.9 93.2 24.7L92.4 25.1L91.9 24.6C91.1 23.8 90.4 22.8 90.4 21.8C90.3 20.5 91.2 19.6 93.1 19.6ZM106.5 39.6L102 35C103.5 33.1 104.6 30.9 105 28.5H100C99.7 29.5 99.3 30.6 98.7 31.5L95.5 28.2L95.6 28.1C98.6 26.8 100.6 24.8 100.6 22C100.6 18.2 98.3 15.5 93.3 15.5C88 15.5 85.7 18.5 85.7 21.9C85.7 23.8 86.7 25.4 88.2 27C85.2 28.5 83.5 30.6 83.5 33.4C83.5 37.6 86.1 40.1 91.5 40.1C94.1 40.1 96.5 39.3 98.5 38L99.9 39.5H106.5V39.6ZM69.3 40.1C74.8 40.1 77.2 38 77.2 34.4C77.2 30.9 75 29.5 70.7 28.9L68.9 28.7C67.5 28.5 67 28.1 67 27.4C67 26.7 67.6 26.1 69.3 26.1C71 26.1 71.6 26.7 71.7 27.7H76.6C76.4 24 73.9 22.2 69.2 22.2C63.9 22.2 61.8 24.6 61.8 27.8C61.8 31.2 64 32.6 67.7 33.1L69.5 33.3C71.3 33.5 71.9 33.9 71.9 34.8C71.9 35.7 71.1 36.2 69.1 36.2C67.1 36.2 66.3 35.6 66.1 34.3H61.1C61.4 37.8 63.5 40.1 69.3 40.1ZM48.3 29C48.6 27 49.6 26.1 51.8 26.1C54.3 26.1 55 27.3 55.2 29H48.3ZM60.4 31.1C60.4 25.7 57.9 22.1 51.8 22.1C45.2 22.1 43.2 26.5 43.2 31.1C43.2 36.5 45.7 40.1 52.1 40.1C57.1 40.1 59.8 37.7 60.1 34.4H55.1C54.7 35.5 54 36 52 36C49.5 36 48.4 35 48.2 32.5H60.3C60.4 32 60.4 31.5 60.4 31.1ZM38.4 39.6H41.5V16H36.4V37.5C36.4 38.9 37.1 39.6 38.4 39.6ZM34 22.6H28.9V39.6H34V22.6ZM34 16H28.9V20.3H34V16ZM5.5 25.7L11.6 39.5H15.2L21.3 25.7V39.5H26.8V16H20.3L13.5 31.4L6.5 16H0V39.6H5.5V25.7Z" fill="white"/>
</g>
<defs>
<clipPath id="clip0_768_792">
<rect width="189" height="56" fill="white"/>
</clipPath>
</defs>
</svg>
